img/iconmonstr-speech-bubble-thin.svg

<svg width="24" height="24" xmlns="http://www.w3.org/2000/svg" fill-rule="evenodd" clip-rule="evenodd"><path d="M12 1c-6.338 0-12 4.226-12 10.007 0 2.05.739 4.063 2.047 5.625l-1.993 6.368 6.946-3c1.705.439 3.334.641 4.864.641 7.174 0 12.136-4.439 12.136-9.634 0-5.812-5.701-10.007-12-10.007m0 1c6.065 0 11 4.041 11 9.007 0 4.922-4.787 8.634-11.136 8.634-1.881 0-3.401-.299-4.946-.695l-5.258 2.271 1.505-4.808c-1.308-1.564-2.165-3.128-2.165-5.402 0-4.966 4.935-9.007 11-9.007"/></svg>

<svg width="24" height="24" viewBox="0 0 24 24" fill="none" xmlns="http://www.w3.org/2000/svg">
<path fill-rule="evenodd" clip-rule="evenodd" d="M12 1C5.662 1 0 5.226 0 11.007C0 13.057 0.739 15.07 2.047 16.632L0.054 23L7 20C8.705 20.439 10.334 20.641 11.864 20.641C19.038 20.641 24 16.202 24 11.007C24 5.195 18.299 1 12 1ZM12 2C18.065 2 23 6.041 23 11.007C23 15.929 18.213 19.641 11.864 19.641C9.983 19.641 8.463 19.342 6.918 18.946L1.66 21.217L3.165 16.409C1.857 14.845 1 13.281 1 11.007C1 6.041 5.935 2 12 2Z" fill="#E6E6E6"/>
</svg>
